X: 1
T: Neil Gow's Wife
M: 4/4
L: 1/8
R: strathspey
K: Amin
e |: c<A A>c B<G G>B | c<A A>B c>B c<a |
c<A A>c B<G G>B |1 (3cBA B>G E<A Ae :|2 (3cBA B>G E<A A>B ||
c2 e>c g>c e>c | G<G B>G d>G B>G |
c<c e>c g>c e>c | e<a a>g e<a a>b |
g<e e>g f<d d>=f | ec ae d/c/B/A/ G>B |
(3cBA (3dcB (3e=fg a2 | (3edc B>G E<A A
